neru-light-classic/32x32/apps/flacon.svg

<?xml version="1.0" encoding="UTF-8" standalone="no"?>
<svg
   xmlns:dc="http://purl.org/dc/elements/1.1/"
   xmlns:cc="http://creativecommons.org/ns#"
   xmlns:rdf="http://www.w3.org/1999/02/22-rdf-syntax-ns#"
   xmlns:svg="http://www.w3.org/2000/svg"
   xmlns="http://www.w3.org/2000/svg"
   xmlns:sodipodi="http://sodipodi.sourceforge.net/DTD/sodipodi-0.dtd"
   xmlns:inkscape="http://www.inkscape.org/namespaces/inkscape"
   height="32"
   width="32"
   version="1"
   id="svg18"
   sodipodi:docname="flacon.svg"
   inkscape:version="0.92.1 r">
  <metadata
     id="metadata24">
    <rdf:RDF>
      <cc:Work
         rdf:about="">
        <dc:format>image/svg+xml</dc:format>
        <dc:type
           rdf:resource="http://purl.org/dc/dcmitype/StillImage" />
      </cc:Work>
    </rdf:RDF>
  </metadata>
  <defs
     id="defs22" />
  <sodipodi:namedview
     pagecolor="#ffffff"
     bordercolor="#666666"
     borderopacity="1"
     objecttolerance="10"
     gridtolerance="10"
     guidetolerance="10"
     inkscape:pageopacity="0"
     inkscape:pageshadow="2"
     inkscape:window-width="640"
     inkscape:window-height="480"
     id="namedview20"
     showgrid="false"
     inkscape:zoom="17.625"
     inkscape:cx="17.452832"
     inkscape:cy="17.976574"
     inkscape:current-layer="svg18"
     showguides="true"
     inkscape:guide-bbox="true">
    <sodipodi:guide
       position="-27.441761,20.862158"
       orientation="1,0"
       id="guide4501"
       inkscape:locked="false" />
  </sodipodi:namedview>
  <path
     style="opacity:1;fill:#e2b322;fill-opacity:1;fill-rule:evenodd;stroke:none;stroke-width:1.03534329;stroke-linecap:round;stroke-linejoin:bevel;stroke-miterlimit:4;stroke-dasharray:none;stroke-dashoffset:0;stroke-opacity:1"
     d="M 1.8984375 12.199219 C 1.9044341 12.213529 1.9060705 12.229852 1.9121094 12.244141 C 2.2987101 13.15886 2.7710468 14.028472 3.3203125 14.841797 C 3.8695782 15.655122 4.4959928 16.412008 5.1875 17.103516 C 5.8790072 17.795023 6.6358938 18.421437 7.4492188 18.970703 C 8.2625437 19.519969 9.1321558 19.992305 10.046875 20.378906 C 10.961594 20.765507 11.922279 21.066019 12.917969 21.269531 C 13.913659 21.473043 14.943763 21.580078 16 21.580078 C 17.056237 21.580078 18.086341 21.473043 19.082031 21.269531 C 20.077721 21.066019 21.038406 20.765507 21.953125 20.378906 C 22.867844 19.992305 23.737456 19.519969 24.550781 18.970703 C 25.364106 18.421437 26.120993 17.795023 26.8125 17.103516 C 27.504007 16.412008 28.130422 15.655122 28.679688 14.841797 C 29.228953 14.028472 29.70129 13.15886 30.087891 12.244141 C 30.093929 12.229852 30.095566 12.213529 30.101562 12.199219 L 30.101562 7.4726562 C 30.101563 4.3840054 27.615995 1.8984375 24.527344 1.8984375 L 7.4726562 1.8984375 C 4.3840054 1.8984375 1.8984375 4.3840054 1.8984375 7.4726562 L 1.8984375 12.199219 z "
     id="path4535" />
  <path
     style="opacity:1;fill:#e2b322;fill-opacity:1;fill-rule:evenodd;stroke:none;stroke-width:1.03534329;stroke-linecap:round;stroke-linejoin:bevel;stroke-miterlimit:4;stroke-dasharray:none;stroke-dashoffset:0;stroke-opacity:1"
     d="M 1.8984375 14.298828 L 1.8984375 24.527344 C 1.8984375 27.615995 4.3840054 30.101562 7.4726562 30.101562 L 24.527344 30.101562 C 27.615995 30.101563 30.101562 27.615995 30.101562 24.527344 L 30.101562 14.298828 C 29.895494 14.660518 29.738153 15.052762 29.505859 15.396484 C 28.920166 16.263125 28.252743 17.069522 27.515625 17.806641 C 26.778507 18.543759 25.97211 19.211182 25.105469 19.796875 C 24.238828 20.382568 23.312151 20.886463 22.337891 21.298828 C 21.36363 21.711193 20.341228 22.030913 19.28125 22.248047 C 18.221272 22.465181 17.123792 22.580078 16 22.580078 C 14.876208 22.580078 13.778728 22.465181 12.71875 22.248047 C 11.658772 22.030913 10.63637 21.711193 9.6621094 21.298828 C 8.6878486 20.886463 7.7611723 20.382568 6.8945312 19.796875 C 6.0278902 19.211182 5.2214934 18.543759 4.484375 17.806641 C 3.7472566 17.069522 3.0798336 16.263125 2.4941406 15.396484 C 2.2618466 15.052762 2.104506 14.660518 1.8984375 14.298828 z "
     id="path4533" />
  <g
     id="g4539"
     transform="translate(43.441406,3.7382814)">
    <path
       id="path4506"
       d="m -27.441406,-1.8398438 h -8.527344 c -3.088651,0 -5.574219,2.48556799 -5.574219,5.5742188 v 17.052734 c 0,3.088651 2.485568,5.576172 5.574219,5.576172 h 8.527344 z"
       style="opacity:1;fill:#e2b322;fill-opacity:1;fill-rule:evenodd;stroke:none;stroke-width:1.03534329;stroke-linecap:round;stroke-linejoin:bevel;stroke-miterlimit:4;stroke-dasharray:none;stroke-dashoffset:0;stroke-opacity:1"
       inkscape:connector-curvature="0" />
    <path
       id="rect4497-3-3"
       d="M -27.441406,-1.8398438 V 26.363281 h 8.52539 c 3.088651,0 5.576172,-2.487521 5.576172,-5.576172 V 3.734375 c 0,-3.08865081 -2.487521,-5.5742187 -5.576172,-5.5742188 z"
       style="opacity:1;fill:#f2cd22;fill-opacity:1;fill-rule:evenodd;stroke:none;stroke-width:1.03534329;stroke-linecap:round;stroke-linejoin:bevel;stroke-miterlimit:4;stroke-dasharray:none;stroke-dashoffset:0;stroke-opacity:1"
       inkscape:connector-curvature="0" />
  </g>
  <path
     inkscape:connector-curvature="0"
     id="path12"
     d="m 13.481535,27.740759 c 0,0.534574 0.43383,0.968403 0.968403,0.968403 0.534996,0 0.968718,-0.433697 0.968718,-0.968717 0,-0.172846 -0.05387,-0.331751 -0.133196,-0.472238 l 0.714653,-0.763137 0.714402,0.762822 c -0.07933,0.140487 -0.133196,0.299392 -0.133196,0.472238 0,0.534573 0.433829,0.968403 0.969032,0.968403 0.534574,0 0.968403,-0.43383 0.968403,-0.968403 0,-0.534996 -0.433696,-0.968718 -0.968718,-0.968718 -0.08879,0 -0.172587,0.01394 -0.254284,0.0363 L 16.4966,25.984318 18.131299,24.252778 V 23.67156 h -0.387474 l -3.039262,3.136165 c -0.08169,-0.0224 -0.165485,-0.0363 -0.254285,-0.0363 -0.535203,0 -0.969033,0.433829 -0.969033,0.969032 z m 0.581218,0 c 0,-0.213993 0.173482,-0.387474 0.387475,-0.387474 0.213993,0 0.387474,0.173481 0.387474,0.387474 0,0.213994 -0.173481,0.387475 -0.387474,0.387475 -0.213993,0 -0.387475,-0.173481 -0.387475,-0.387475 z m -0.193737,-3.487321 1.440956,1.525707 0.496455,-0.508563 -1.549886,-1.598368 h -0.387474 z m 3.293578,3.487321 c 0,-0.213993 0.173481,-0.387474 0.387474,-0.387474 0.213994,0 0.387475,0.173481 0.387475,0.387474 0,0.213994 -0.173481,0.387475 -0.387475,0.387475 -0.213993,0 -0.387474,-0.173481 -0.387474,-0.387475 z"
     style="fill:#ffffff;stroke-width:1" />
  <path
     inkscape:connector-curvature="0"
     id="path4"
     style="fill:#ffffff;stroke-width:1"
     d="m 19.943238,8.2682887 -5.802244,1.337708 c -0.817836,0.103094 -0.786679,0.9405383 -0.786679,0.9405383 v 0.774921 2.795468 c -0.188963,-0.05443 -0.384548,-0.08244 -0.581191,-0.08324 -1.176937,0 -2.131034,0.954096 -2.131034,2.131033 0,1.176938 0.954097,2.131034 2.131034,2.131034 1.101482,-5.43e-4 2.021061,-0.840382 2.121195,-1.937304 h 0.0098 v -0.19373 -5.169421 l 4.262067,-1.0136993 v 2.9729493 c -0.188961,-0.05443 -0.384547,-0.08244 -0.58119,-0.08324 -1.176938,0 -2.131034,0.954096 -2.131034,2.131033 0,1.176937 0.954096,2.131034 2.131034,2.131034 1.101482,-5.42e-4 2.021061,-0.840382 2.121195,-1.937303 h 0.0098 V 9.6554307 8.9966917 c 0,0 0.01008,-0.893227 -0.77283,-0.728403 z" />
  <path
     style="opacity:1;fill:#ffffff;fill-opacity:1;fill-rule:evenodd;stroke:none;stroke-width:1.03534329;stroke-linecap:round;stroke-linejoin:bevel;stroke-miterlimit:4;stroke-dasharray:none;stroke-dashoffset:0;stroke-opacity:1"
     d="M 1.8984375 14.298828 C 2.104506 14.660518 2.2618466 15.052762 2.4941406 15.396484 C 3.0798336 16.263125 3.7472566 17.069522 4.484375 17.806641 C 5.2214934 18.543759 6.0278902 19.211182 6.8945312 19.796875 C 7.7611723 20.382568 8.6878486 20.886463 9.6621094 21.298828 C 10.63637 21.711193 11.658772 22.030913 12.71875 22.248047 C 13.778728 22.465181 14.876208 22.580078 16 22.580078 C 17.123792 22.580078 18.221272 22.465181 19.28125 22.248047 C 20.341228 22.030913 21.36363 21.711193 22.337891 21.298828 C 23.312151 20.886463 24.238828 20.382568 25.105469 19.796875 C 25.97211 19.211182 26.778507 18.543759 27.515625 17.806641 C 28.252743 17.069522 28.920166 16.263125 29.505859 15.396484 C 29.738153 15.052762 29.895494 14.660518 30.101562 14.298828 L 30.101562 12.199219 C 30.095566 12.213529 30.093929 12.229852 30.087891 12.244141 C 29.70129 13.15886 29.228953 14.028472 28.679688 14.841797 C 28.130422 15.655122 27.504007 16.412008 26.8125 17.103516 C 26.120993 17.795023 25.364106 18.421437 24.550781 18.970703 C 23.737456 19.519969 22.867844 19.992305 21.953125 20.378906 C 21.038406 20.765507 20.077721 21.066019 19.082031 21.269531 C 18.086341 21.473043 17.056237 21.580078 16 21.580078 C 14.943763 21.580078 13.913659 21.473043 12.917969 21.269531 C 11.922279 21.066019 10.961594 20.765507 10.046875 20.378906 C 9.1321558 19.992305 8.2625437 19.519969 7.4492188 18.970703 C 6.6358938 18.421437 5.8790072 17.795023 5.1875 17.103516 C 4.4959928 16.412008 3.8695782 15.655122 3.3203125 14.841797 C 2.7710468 14.028472 2.2987101 13.15886 1.9121094 12.244141 C 1.9060705 12.229852 1.9044341 12.213529 1.8984375 12.199219 L 1.8984375 14.298828 z "
     id="rect4497-3" />
</svg>

<svg xmlns="http://www.w3.org/2000/svg" height="32" width="32" version="1"><path d="M1.898 12.2c.006.014.008.03.014.044a15.247 15.247 0 0 0 3.276 4.86A15.247 15.247 0 0 0 16 21.58c1.055 0 2.085-.108 3.081-.311a15.184 15.184 0 0 0 5.469-2.3 15.348 15.348 0 0 0 4.129-4.128 15.247 15.247 0 0 0 1.408-2.598c.006-.014.008-.03.014-.045V7.473a5.561 5.561 0 0 0-5.575-5.575H7.473a5.561 5.561 0 0 0-5.575 5.575v4.726z" fill="#e2b322" fill-rule="evenodd"/><path d="M1.898 14.299v10.228a5.561 5.561 0 0 0 5.575 5.575h17.054a5.561 5.561 0 0 0 5.575-5.575V14.3c-.207.362-.364.754-.596 1.097a16.383 16.383 0 0 1-4.4 4.4 16.266 16.266 0 0 1-5.825 2.452 16.338 16.338 0 0 1-9.619-.95 16.266 16.266 0 0 1-5.178-3.491 16.383 16.383 0 0 1-1.99-2.41c-.232-.344-.39-.736-.596-1.098z" fill="#e2b322" fill-rule="evenodd"/><g fill-rule="evenodd"><path d="M16 1.898H7.473a5.561 5.561 0 0 0-5.575 5.575v17.052a5.563 5.563 0 0 0 5.575 5.577H16z" fill="#e2b322"/><path d="M16 1.898v28.204h8.525a5.565 5.565 0 0 0 5.577-5.577V7.473a5.563 5.563 0 0 0-5.577-5.575z" fill="#f2cd22"/></g><path d="M13.482 27.74a.969.969 0 0 0 1.937 0 .958.958 0 0 0-.134-.472l.715-.763.715.763c-.08.14-.134.3-.134.472a.969.969 0 1 0 .969-.969.955.955 0 0 0-.254.037l-.8-.824 1.635-1.731v-.581h-.387l-3.04 3.136a.969.969 0 0 0-1.223.933zm.58 0a.387.387 0 1 1 .776 0 .387.387 0 0 1-.775 0zm-.193-3.487l1.441 1.526.496-.508-1.55-1.599h-.387zm3.294 3.488a.387.387 0 1 1 .775 0 .387.387 0 0 1-.775 0zM19.943 8.268l-5.802 1.338c-.818.103-.787.94-.787.94V14.118a2.131 2.131 0 1 0 1.54 2.242h.01v-5.364l4.262-1.013v2.973a2.131 2.131 0 1 0 1.54 2.242h.01v-6.2s.01-.894-.773-.729z" fill="#fff"/><path d="M1.898 14.299c.207.362.364.754.596 1.097a16.383 16.383 0 0 0 4.4 4.4 16.266 16.266 0 0 0 5.825 2.452 16.338 16.338 0 0 0 9.619-.95 16.266 16.266 0 0 0 5.178-3.491 16.383 16.383 0 0 0 1.99-2.41c.232-.344.39-.736.596-1.098v-2.1c-.006.015-.008.03-.014.045a15.247 15.247 0 0 1-3.276 4.86A15.247 15.247 0 0 1 16 21.58c-1.055 0-2.085-.108-3.081-.311a15.184 15.184 0 0 1-5.469-2.3 15.348 15.348 0 0 1-4.129-4.128 15.247 15.247 0 0 1-1.408-2.598c-.006-.014-.008-.03-.014-.045v2.1z" fill="#fff" fill-rule="evenodd"/></svg>
